flaticon/technology/game-controller-7.svg

<svg xmlns="http://www.w3.org/2000/svg" width="32" height="32" viewBox="0 0 24 24">
    <path d="M8.402344 12.257812L7.601562 12.257812 7.601562 11.457031C7.601562 11.238281 7.421875 11.058594 7.203125 11.058594L5.203125 11.058594C4.980469 11.058594 4.804688 11.238281 4.804688 11.457031L4.804688 12.257812 4.003906 12.257812C3.78125 12.257812 3.601562 12.4375 3.601562 12.65625L3.601562 14.65625C3.601562 14.878906 3.78125 15.058594 4.003906 15.058594L4.804688 15.058594 4.804688 15.855469C4.804688 16.078125 4.980469 16.257812 5.203125 16.257812L7.203125 16.257812C7.421875 16.257812 7.601562 16.078125 7.601562 15.855469L7.601562 15.058594 8.402344 15.058594C8.621094 15.058594 8.800781 14.878906 8.800781 14.65625L8.800781 12.65625C8.800781 12.4375 8.621094 12.257812 8.402344 12.257812zM8 14.257812L7.203125 14.257812C6.980469 14.257812 6.800781 14.4375 6.800781 14.65625L6.800781 15.457031 5.601562 15.457031 5.601562 14.65625C5.601562 14.4375 5.425781 14.257812 5.203125 14.257812L4.402344 14.257812 4.402344 13.058594 5.203125 13.058594C5.425781 13.058594 5.601562 12.878906 5.601562 12.65625L5.601562 11.859375 6.800781 11.859375 6.800781 12.65625C6.800781 12.878906 6.980469 13.058594 7.203125 13.058594L8 13.058594zM16.796875 12.058594C16.796875 12.828125 17.425781 13.457031 18.199219 13.457031 18.96875 13.457031 19.597656 12.828125 19.597656 12.058594 19.597656 11.285156 18.96875 10.660156 18.199219 10.660156 17.425781 10.660156 16.796875 11.285156 16.796875 12.058594zM18.796875 12.058594C18.796875 12.390625 18.527344 12.65625 18.199219 12.65625 17.867188 12.65625 17.597656 12.390625 17.597656 12.058594 17.597656 11.726562 17.867188 11.457031 18.199219 11.457031 18.527344 11.457031 18.796875 11.726562 18.796875 12.058594zM18.199219 14.65625C17.425781 14.65625 16.796875 15.285156 16.796875 16.058594 16.796875 16.828125 17.425781 17.457031 18.199219 17.457031 18.96875 17.457031 19.597656 16.828125 19.597656 16.058594 19.597656 15.285156 18.96875 14.65625 18.199219 14.65625zM18.199219 16.65625C17.867188 16.65625 17.597656 16.386719 17.597656 16.058594 17.597656 15.726562 17.867188 15.457031 18.199219 15.457031 18.527344 15.457031 18.796875 15.726562 18.796875 16.058594 18.796875 16.386719 18.527344 16.65625 18.199219 16.65625zM15.796875 12.65625C15.027344 12.65625 14.398438 13.285156 14.398438 14.058594 14.398438 14.828125 15.027344 15.457031 15.796875 15.457031 16.570312 15.457031 17.199219 14.828125 17.199219 14.058594 17.199219 13.285156 16.570312 12.65625 15.796875 12.65625zM15.796875 14.65625C15.46875 14.65625 15.199219 14.386719 15.199219 14.058594 15.199219 13.726562 15.46875 13.457031 15.796875 13.457031 16.128906 13.457031 16.398438 13.726562 16.398438 14.058594 16.398438 14.386719 16.128906 14.65625 15.796875 14.65625zM10.800781 8.261719C10.800781 8.480469 10.621094 8.660156 10.402344 8.660156 10.179688 8.660156 10 8.480469 10 8.261719 10 8.039062 10.179688 7.859375 10.402344 7.859375 10.621094 7.859375 10.800781 8.039062 10.800781 8.261719zM12.398438 8.261719C12.398438 8.480469 12.222656 8.660156 12 8.660156 11.777344 8.660156 11.601562 8.480469 11.601562 8.261719 11.601562 8.039062 11.777344 7.859375 12 7.859375 12.222656 7.859375 12.398438 8.039062 12.398438 8.261719zM12.398438 14.257812C12.398438 14.476562 12.222656 14.65625 12 14.65625 11.777344 14.65625 11.601562 14.476562 11.601562 14.257812 11.601562 14.035156 11.777344 13.859375 12 13.859375 12.222656 13.859375 12.398438 14.035156 12.398438 14.257812zM14 8.261719C14 8.480469 13.820312 8.660156 13.597656 8.660156 13.378906 8.660156 13.199219 8.480469 13.199219 8.261719 13.199219 8.039062 13.378906 7.859375 13.597656 7.859375 13.820312 7.859375 14 8.039062 14 8.261719zM20.597656 12.65625C19.824219 12.65625 19.195312 13.285156 19.195312 14.058594 19.195312 14.828125 19.824219 15.457031 20.597656 15.457031 21.367188 15.457031 21.996094 14.828125 21.996094 14.058594 21.996094 13.285156 21.367188 12.65625 20.597656 12.65625zM20.597656 14.65625C20.265625 14.65625 19.996094 14.386719 19.996094 14.058594 19.996094 13.726562 20.265625 13.457031 20.597656 13.457031 20.925781 13.457031 21.195312 13.726562 21.195312 14.058594 21.195312 14.386719 20.925781 14.65625 20.597656 14.65625zM20.597656 14.65625"/>
    <path d="M 23.058594 12.140625 C 22.835938 10.832031 22.625 9.59375 22.46875 8.457031 C 22.082031 5.695312 21.253906 3.972656 19.996094 3.332031 L 19.996094 2.617188 C 19.996094 1.980469 19.480469 1.460938 18.84375 1.460938 L 17.949219 1.460938 C 17.316406 1.460938 16.796875 1.980469 16.796875 2.617188 L 16.796875 3.867188 C 14.5 5.101562 12.859375 4.945312 12.847656 4.945312 L 11.199219 4.941406 L 11.152344 4.945312 C 11.136719 4.945312 9.519531 5.113281 7.203125 3.867188 L 7.203125 2.617188 C 7.203125 1.980469 6.683594 1.460938 6.050781 1.460938 L 5.15625 1.460938 C 4.519531 1.460938 4.003906 1.980469 4.003906 2.617188 L 4.003906 3.332031 C 2.746094 3.972656 1.917969 5.695312 1.53125 8.457031 C 1.375 9.59375 1.164062 10.832031 0.941406 12.140625 C -0.0390625 17.90625 -0.535156 21.46875 0.878906 22.351562 C 1.078125 22.476562 1.300781 22.539062 1.542969 22.539062 C 2.019531 22.539062 2.589844 22.296875 3.261719 21.8125 C 3.820312 21.410156 4.34375 20.878906 4.867188 20.191406 C 6.503906 18.03125 8.738281 16.9375 11.507812 16.9375 C 11.554688 16.9375 11.601562 16.9375 11.648438 16.9375 L 12.359375 16.9375 C 15.1875 16.894531 17.46875 17.996094 19.132812 20.191406 C 19.65625 20.878906 20.179688 21.410156 20.738281 21.8125 C 21.753906 22.542969 22.53125 22.71875 23.121094 22.351562 C 24.535156 21.46875 24.039062 17.90625 23.058594 12.140625 Z M 17.597656 2.617188 C 17.597656 2.421875 17.757812 2.261719 17.949219 2.261719 L 18.84375 2.261719 C 19.039062 2.261719 19.195312 2.421875 19.195312 2.617188 L 19.195312 3.082031 C 19.1875 3.082031 19.179688 3.082031 19.171875 3.082031 C 18.972656 3.058594 18.789062 3.058594 18.617188 3.078125 C 18.605469 3.078125 18.589844 3.082031 18.578125 3.082031 C 18.496094 3.09375 18.414062 3.105469 18.339844 3.121094 C 18.332031 3.125 18.324219 3.125 18.316406 3.128906 C 18.25 3.140625 18.191406 3.15625 18.132812 3.175781 C 18.117188 3.179688 18.101562 3.183594 18.085938 3.1875 C 18.03125 3.207031 17.980469 3.222656 17.9375 3.242188 C 17.910156 3.25 17.890625 3.257812 17.867188 3.265625 C 17.851562 3.273438 17.832031 3.28125 17.816406 3.289062 C 17.710938 3.335938 17.640625 3.371094 17.632812 3.378906 L 17.617188 3.386719 C 17.613281 3.390625 17.605469 3.394531 17.597656 3.398438 Z M 4.804688 2.617188 C 4.804688 2.421875 4.960938 2.261719 5.15625 2.261719 L 6.050781 2.261719 C 6.242188 2.261719 6.402344 2.421875 6.402344 2.617188 L 6.402344 3.398438 C 6.394531 3.394531 6.390625 3.390625 6.382812 3.386719 L 6.367188 3.378906 C 6.363281 3.375 6.355469 3.371094 6.34375 3.363281 C 6.335938 3.363281 6.332031 3.359375 6.324219 3.355469 C 6.3125 3.347656 6.296875 3.339844 6.277344 3.332031 C 6.269531 3.328125 6.261719 3.324219 6.253906 3.320312 C 6.222656 3.304688 6.1875 3.289062 6.148438 3.273438 C 6.144531 3.269531 6.140625 3.269531 6.136719 3.265625 C 6.097656 3.25 6.058594 3.234375 6.011719 3.21875 C 6 3.214844 5.992188 3.214844 5.980469 3.210938 C 5.929688 3.191406 5.875 3.175781 5.816406 3.160156 C 5.816406 3.160156 5.816406 3.15625 5.8125 3.15625 C 5.75 3.140625 5.679688 3.125 5.609375 3.109375 C 5.605469 3.109375 5.597656 3.109375 5.59375 3.109375 C 5.527344 3.09375 5.460938 3.085938 5.386719 3.078125 C 5.378906 3.078125 5.367188 3.074219 5.359375 3.074219 C 5.191406 3.058594 5.015625 3.058594 4.824219 3.082031 C 4.816406 3.082031 4.8125 3.082031 4.804688 3.082031 Z M 22.695312 21.671875 C 22.425781 21.839844 21.898438 21.660156 21.207031 21.164062 C 20.714844 20.808594 20.242188 20.332031 19.769531 19.707031 C 17.496094 16.707031 14.484375 16.109375 12.347656 16.136719 L 11.652344 16.136719 C 9.515625 16.109375 6.507812 16.707031 4.230469 19.707031 C 3.757812 20.332031 3.285156 20.808594 2.792969 21.164062 C 2.101562 21.660156 1.574219 21.839844 1.304688 21.671875 C 0.242188 21.011719 1.101562 15.960938 1.730469 12.277344 C 1.953125 10.960938 2.164062 9.714844 2.324219 8.566406 C 2.757812 5.441406 3.6875 4.375 4.390625 4.03125 C 4.445312 4.003906 4.503906 3.980469 4.558594 3.960938 C 4.636719 3.929688 4.71875 3.910156 4.796875 3.894531 C 4.804688 3.890625 4.8125 3.890625 4.820312 3.890625 C 4.898438 3.875 4.976562 3.867188 5.050781 3.863281 C 5.050781 3.863281 5.050781 3.863281 5.054688 3.863281 C 5.535156 3.847656 5.910156 4.039062 5.957031 4.066406 C 6.097656 4.152344 6.230469 4.234375 6.363281 4.3125 C 6.441406 4.359375 6.515625 4.402344 6.589844 4.445312 C 6.59375 4.449219 6.601562 4.449219 6.605469 4.453125 L 7.203125 4.789062 L 7.203125 4.769531 C 9.40625 5.855469 10.988281 5.765625 11.21875 5.742188 L 12.777344 5.742188 C 13.011719 5.765625 14.597656 5.855469 16.796875 4.769531 L 16.796875 4.789062 L 17.378906 4.460938 C 17.464844 4.414062 17.546875 4.367188 17.632812 4.316406 C 17.765625 4.238281 17.902344 4.15625 18.042969 4.066406 C 18.042969 4.066406 18.042969 4.0625 18.042969 4.0625 C 18.089844 4.039062 18.441406 3.863281 18.898438 3.867188 C 18.917969 3.867188 18.9375 3.867188 18.960938 3.867188 C 19.007812 3.867188 19.0625 3.875 19.113281 3.882812 C 19.15625 3.890625 19.195312 3.894531 19.242188 3.90625 C 19.28125 3.914062 19.324219 3.925781 19.367188 3.941406 C 19.445312 3.964844 19.519531 3.988281 19.597656 4.023438 C 20.304688 4.367188 21.238281 5.433594 21.675781 8.566406 C 21.832031 9.714844 22.046875 10.960938 22.269531 12.277344 C 22.898438 15.960938 23.757812 21.011719 22.695312 21.671875 Z M 22.695312 21.671875"/>
    <path d="M6.003906 9.859375C7.324219 9.859375 8.402344 8.785156 8.402344 7.460938 8.402344 6.136719 7.324219 5.0625 6.003906 5.0625 4.679688 5.0625 3.601562 6.136719 3.601562 7.460938 3.601562 8.785156 4.679688 9.859375 6.003906 9.859375zM6.003906 5.859375C6.882812 5.859375 7.601562 6.578125 7.601562 7.460938 7.601562 8.34375 6.882812 9.058594 6.003906 9.058594 5.121094 9.058594 4.402344 8.34375 4.402344 7.460938 4.402344 6.578125 5.121094 5.859375 6.003906 5.859375zM17.996094 9.859375C19.320312 9.859375 20.398438 8.785156 20.398438 7.460938 20.398438 6.136719 19.320312 5.0625 17.996094 5.0625 16.675781 5.0625 15.597656 6.136719 15.597656 7.460938 15.597656 8.785156 16.675781 9.859375 17.996094 9.859375zM17.996094 5.859375C18.878906 5.859375 19.597656 6.578125 19.597656 7.460938 19.597656 8.34375 18.878906 9.058594 17.996094 9.058594 17.117188 9.058594 16.398438 8.34375 16.398438 7.460938 16.398438 6.578125 17.117188 5.859375 17.996094 5.859375zM17.996094 5.859375"/>
</svg>

<svg xmlns="http://www.w3.org/2000/svg" width="32" height="32" viewBox="0 0 24 24">
    <path d="M8.402 12.258h-.8v-.801a.4.4 0 0 0-.399-.398h-2a.398.398 0 0 0-.398.398v.8h-.801a.401.401 0 0 0-.402.4v2c0 .222.18.402.402.402h.8v.796c0 .223.176.403.4.403h2c.218 0 .398-.18.398-.403v-.796h.8c.22 0 .399-.18.399-.403v-2a.4.4 0 0 0-.399-.398zm-.402 2h-.797a.401.401 0 0 0-.402.398v.801H5.6v-.8a.398.398 0 0 0-.398-.4h-.8V13.06h.8c.223 0 .399-.18.399-.403v-.797H6.8v.797c0 .223.18.403.402.403H8zm0 0M16.797 12.059c0 .77.629 1.398 1.402 1.398.77 0 1.399-.629 1.399-1.398a1.4 1.4 0 0 0-2.801 0zm2 0c0 .332-.27.597-.598.597a.598.598 0 1 1 0-1.199c.328 0 .598.27.598.602zm0 0M18.2 14.656c-.774 0-1.403.63-1.403 1.403 0 .77.629 1.398 1.402 1.398.77 0 1.399-.629 1.399-1.398 0-.774-.63-1.403-1.399-1.403zm0 2a.601.601 0 0 1-.602-.597c0-.332.27-.602.601-.602a.6.6 0 0 1 0 1.2zm0 0M15.797 12.656c-.77 0-1.399.63-1.399 1.403 0 .77.63 1.398 1.399 1.398.773 0 1.402-.629 1.402-1.398 0-.774-.629-1.403-1.402-1.403zm0 2a.6.6 0 1 1 .005-1.2.6.6 0 0 1-.005 1.2zm0 0M10.8 8.262a.4.4 0 1 1-.8-.004.4.4 0 0 1 .8.004zm0 0M12.398 8.262a.398.398 0 1 1-.796 0 .398.398 0 1 1 .796 0zm0 0M12.398 14.258a.398.398 0 1 1-.796 0c0-.223.175-.399.398-.399.223 0 .398.176.398.399zm0 0M14 8.262a.401.401 0 1 1-.802-.005.401.401 0 0 1 .802.005zm0 0M20.598 12.656c-.774 0-1.403.63-1.403 1.403 0 .77.63 1.398 1.403 1.398.77 0 1.398-.629 1.398-1.398 0-.774-.629-1.403-1.398-1.403zm0 2a.601.601 0 0 1-.602-.597.601.601 0 0 1 1.2 0 .6.6 0 0 1-.598.597zm0 0"/>
    <path d="M23.059 12.14c-.223-1.308-.434-2.546-.59-3.683-.387-2.762-1.215-4.484-2.473-5.125v-.715c0-.637-.516-1.156-1.152-1.156h-.895c-.633 0-1.152.52-1.152 1.156v1.25c-2.297 1.235-3.938 1.078-3.95 1.078L11.2 4.941l-.047.004c-.015 0-1.632.168-3.949-1.078v-1.25c0-.637-.52-1.156-1.152-1.156h-.895c-.636 0-1.152.52-1.152 1.156v.715c-1.258.64-2.086 2.363-2.473 5.125-.156 1.137-.367 2.375-.59 3.684-.98 5.765-1.476 9.328-.062 10.21.2.126.422.188.664.188.477 0 1.047-.242 1.719-.727.558-.402 1.082-.933 1.605-1.62 1.637-2.16 3.871-3.255 6.64-3.255h.852c2.829-.042 5.11 1.06 6.774 3.254.523.688 1.047 1.22 1.605 1.622 1.016.73 1.793.906 2.383.539 1.414-.883.918-4.446-.062-10.211zm-5.461-9.523c0-.195.16-.355.351-.355h.895c.195 0 .351.16.351.355v.465h-.023a2.402 2.402 0 0 0-.555-.004c-.012 0-.027.004-.039.004-.082.012-.164.023-.238.04-.008.003-.016.003-.024.007a1.26 1.26 0 0 0-.183.047l-.047.011c-.055.02-.106.036-.148.055-.028.008-.047.016-.07.024l-.052.023a1.516 1.516 0 0 0-.183.09l-.016.008c-.004.004-.012.008-.02.011zm-12.793 0c0-.195.156-.355.351-.355h.895c.191 0 .351.16.351.355v.781l-.02-.011-.015-.008-.023-.016c-.008 0-.012-.004-.02-.008a1.397 1.397 0 0 0-.176-.082c-.003-.003-.007-.003-.011-.007-.04-.016-.078-.032-.125-.047L5.98 3.21a1.627 1.627 0 0 0-.164-.05s0-.005-.003-.005a8.24 8.24 0 0 0-.204-.047h-.015a1.644 1.644 0 0 0-.207-.03c-.008 0-.02-.005-.028-.005a2.47 2.47 0 0 0-.535.008h-.02zm17.89 19.055c-.27.168-.797-.012-1.488-.508-.492-.355-.965-.832-1.437-1.457-2.274-3-5.286-3.598-7.422-3.57h-.696c-2.136-.028-5.144.57-7.422 3.57-.472.625-.945 1.102-1.437 1.457-.691.496-1.219.676-1.488.508-1.063-.66-.203-5.711.425-9.395.223-1.316.434-2.562.594-3.71.434-3.126 1.364-4.192 2.067-4.536.054-.027.113-.05.168-.07.078-.031.16-.05.238-.066.008-.004.016-.004.023-.004.078-.016.157-.024.23-.028h.005c.48-.015.855.176.902.203.14.086.273.168.406.247l.227.132c.004.004.012.004.015.008l.598.336v-.02c2.203 1.086 3.785.997 4.016.973h1.558c.235.024 1.82.113 4.02-.972v.02l.582-.33a12.942 12.942 0 0 0 .664-.395v-.002c.047-.024.398-.2.855-.196h.063c.047 0 .102.008.152.016.043.008.082.012.13.023a.87.87 0 0 1 .124.035c.078.024.153.047.23.082.708.344 1.641 1.41 2.079 4.543.156 1.149.37 2.395.594 3.711.628 3.684 1.488 8.735.425 9.395zm0 0"/>
    <path d="M6.004 9.86a2.401 2.401 0 0 0 2.398-2.4 2.401 2.401 0 0 0-4.8 0 2.402 2.402 0 0 0 2.402 2.4zm0-4a1.6 1.6 0 1 1-1.602 1.602c0-.884.72-1.603 1.602-1.603zm0 0M17.996 9.86a2.402 2.402 0 0 0 2.402-2.4 2.401 2.401 0 0 0-4.8 0 2.401 2.401 0 0 0 2.398 2.4zm0-4c.883 0 1.602.718 1.602 1.6a1.6 1.6 0 0 1-3.2 0c0-.882.72-1.6 1.598-1.6zm0 0"/>
</svg>
